!!!OTL: Die Schlangenkoechin.
!!!OTL-incipit: 'Wo bist du denn gewesen,
!!!ARE: Europa, Mitteleuropa, Deutschland / France, Lothringen
!!!YOR: 4, S. 210
!!    1933 gedruckt in Heidelberg
!!!SCT: Q0079O
!!!TXL: @@DE
!!!YEM: Copyright 1995, estate of Helmut Schaffrath.
**kern	**text
*ICvox	*
*M3/4	*
*k[f#]	*
*G:	*
!LO:TX:a:t=Getragen	!
!LO:TX:a:t=18 Lothringen	!
{8bL	'Wo
8ccJ	.
=1	=1
4dd	bift
4b	du
8dd	denn
8ee	ge-
=2	=2
4cc	-we-
4a}	-ſen,
{8cc	Meine
8cc	.
=3	=3
4b	Tochter
4g	.
4b	Mar-
=4	=4
2a}	-jä?
{4d	'Bei
=5	=5
4g	mei-
4g	-ner
4a	Stief-
=6	=6
4b	-go-
4b}	-the,
{4cc	O
=7	=7
4dd	Ma-
4cc	-ma,
4f#	wie
=8	=8
2g}	weh!'
==	==
!!!AGN: Ballade, Mord; Reigen - Tanz, antiphonal
!! Zweite und vierte Zeile = Refrain.
!!!ONB: ESAC (Essen Associative Code) Database: BALLADE
!!!AMT: simple triple
!!!AIN: vox
!!!EED: Helmut Schaffrath
!!!EEV: 1.0
!!!source: Deutsche Volkslieder mit ihren Melodien. Herausgegeben vom Deutschen Volksliedarchiv. Vierter Band. Berlin 1959.
!!!page: 210
!!!ENC: Anna Maria Matuszewska
!!!EEV: 2025/02/25
*-	*-
